lib/flags/sb-solomon-islands.svg

<svg xmlns="http://www.w3.org/2000/svg" fill="none" aria-hidden="true" viewBox="0 0 42 30"><g id="Country=SB - Solomon Islands, Size=sm (36x24)" filter="url(#filter0_dd_91_25263)"><g clip-path="url(#clip0_91_25263)"><g id="flag"><mask id="mask0_91_25263" width="36" height="24" x="3" y="2" maskUnits="userSpaceOnUse" style="mask-type:alpha"><rect id="mask" width="36" height="24" x="3" y="2" fill="white"/></mask><g mask="url(#mask0_91_25263)"><g id="contents"><path id="background" fill="#3D58DB" fill-rule="evenodd" d="M3 2V26H39V2H3Z" clip-rule="evenodd"/><mask id="mask1_91_25263" width="36" height="24" x="3" y="2" maskUnits="userSpaceOnUse" style="mask-type:alpha"><path id="background_2" fill="white" fill-rule="evenodd" d="M3 2V26H39V2H3Z" clip-rule="evenodd"/></mask><g mask="url(#mask1_91_25263)"><path id="green" fill="#579D20" fill-rule="evenodd" d="M3 26H39V2L3 26Z" clip-rule="evenodd"/><path id="Path 14" fill="#FECA00" d="M2.12053 26.7455L0.0913086 24.2494L40.8849 0.0458984L42.9141 2.54199L2.12053 26.7455Z"/><g id="mark"><path id="Combined Shape" fill="#F7FCFF" fill-rule="evenodd" d="M7.11007 8.54644L8.64409 7.60065L10.2506 8.45083L9.68793 6.92652L10.8115 5.83575H9.28922L8.64409 4.23389L7.99896 5.83575L6.47412 5.89171L7.60025 6.92652L7.11007 8.54644ZM13.4756 8.54644L15.0096 7.60065L16.6161 8.45083L16.0534 6.92652L17.177 5.83575H15.6547L15.0096 4.23389L14.3645 5.83575L12.8396 5.89171L13.9657 6.92652L13.4756 8.54644Z" clip-rule="evenodd"/><path id="Combined Shape_2" fill="#F7FCFF" fill-rule="evenodd" d="M10.4792 11.4546L12.0132 10.5088L13.6197 11.359L13.057 9.83472L14.1806 8.74396H12.6583L12.0132 7.14209L11.3681 8.74396L9.84323 8.79991L10.9694 9.83472L10.4792 11.4546ZM8.64409 13.6009L7.11007 14.5467L7.60025 12.9268L6.47412 11.8919L7.99896 11.836L8.64409 10.2341L9.28922 11.836H10.8115L9.68793 12.9268L10.2506 14.4511L8.64409 13.6009ZM15.0096 13.6009L13.4756 14.5467L13.9657 12.9268L12.8396 11.892L14.3645 11.836L15.0096 10.2341L15.6547 11.836H17.177L16.0534 12.9268L16.6161 14.4511L15.0096 13.6009Z" clip-rule="evenodd"/></g></g></g></g></g></g></g><defs><filter id="filter0_dd_91_25263" width="42" height="30" x="0" y="0" color-interpolation-filters="sRGB" filterUnits="userSpaceOnUse"><feFlood flood-opacity="0" result="BackgroundImageFix"/><feColorMatrix in="SourceAlpha" result="hardAlpha" values="0 0 0 0 0 0 0 0 0 0 0 0 0 0 0 0 0 0 127 0"/><feOffset dy="1"/><feGaussianBlur stdDeviation="1"/><feColorMatrix values="0 0 0 0 0.0627451 0 0 0 0 0.0941176 0 0 0 0 0.156863 0 0 0 0.06 0"/><feBlend in2="BackgroundImageFix" result="effect1_dropShadow_91_25263"/><feColorMatrix in="SourceAlpha" result="hardAlpha" values="0 0 0 0 0 0 0 0 0 0 0 0 0 0 0 0 0 0 127 0"/><feOffset dy="1"/><feGaussianBlur stdDeviation="1.5"/><feColorMatrix values="0 0 0 0 0.0627451 0 0 0 0 0.0941176 0 0 0 0 0.156863 0 0 0 0.1 0"/><feBlend in2="effect1_dropShadow_91_25263" result="effect2_dropShadow_91_25263"/><feBlend in="SourceGraphic" in2="effect2_dropShadow_91_25263" result="shape"/></filter><clipPath id="clip0_91_25263"><rect width="36" height="24" x="3" y="2" fill="white" rx="2"/></clipPath></defs></svg>

<svg xmlns="http://www.w3.org/2000/svg" fill="none" aria-hidden="true" viewBox="0 0 42 30"><g filter="url(#a)"><g clip-path="url(#b)"><mask id="c" width="36" height="24" x="3" y="2" maskUnits="userSpaceOnUse" style="mask-type:alpha"><path fill="#fff" d="M3 2h36v24H3z"/></mask><g mask="url(#c)"><path fill="#3D58DB" fill-rule="evenodd" d="M3 2v24h36V2H3Z" clip-rule="evenodd"/><mask id="d" width="36" height="24" x="3" y="2" maskUnits="userSpaceOnUse" style="mask-type:alpha"><path fill="#fff" fill-rule="evenodd" d="M3 2v24h36V2H3Z" clip-rule="evenodd"/></mask><g mask="url(#d)"><path fill="#579D20" fill-rule="evenodd" d="M3 26h36V2L3 26Z" clip-rule="evenodd"/><path fill="#FECA00" d="M2.12 26.745.092 24.25 40.885.046l2.03 2.496L2.12 26.746Z"/><g fill="#F7FCFF" fill-rule="evenodd" clip-rule="evenodd"><path d="m7.11 8.546 1.534-.945 1.607.85-.563-1.524 1.123-1.091H9.29l-.645-1.602L8 5.836l-1.525.056L7.6 6.927l-.49 1.62Zm6.366 0 1.534-.945 1.606.85-.563-1.524 1.124-1.091h-1.522l-.645-1.602-.646 1.602-1.524.056 1.126 1.035-.49 1.62Z"/><path d="m10.48 11.455 1.533-.946 1.607.85-.563-1.524 1.124-1.091h-1.523l-.645-1.602-.645 1.602-1.525.056 1.126 1.035-.49 1.62ZM8.643 13.6l-1.534.946.49-1.62-1.126-1.035L8 11.836l.645-1.602.645 1.602h1.523l-1.124 1.09.563 1.525-1.607-.85Zm6.366 0-1.534.946.49-1.62-1.126-1.035 1.524-.056.646-1.602.645 1.602h1.522l-1.124 1.09.563 1.525-1.606-.85Z"/></g></g></g></g></g><defs><clipPath id="b"><rect width="36" height="24" x="3" y="2" fill="#fff" rx="2"/></clipPath><filter id="a" width="42" height="30" x="0" y="0" color-interpolation-filters="sRGB" filterUnits="userSpaceOnUse"><feFlood flood-opacity="0" result="BackgroundImageFix"/><feColorMatrix in="SourceAlpha" result="hardAlpha" values="0 0 0 0 0 0 0 0 0 0 0 0 0 0 0 0 0 0 127 0"/><feOffset dy="1"/><feGaussianBlur stdDeviation="1"/><feColorMatrix values="0 0 0 0 0.0627451 0 0 0 0 0.0941176 0 0 0 0 0.156863 0 0 0 0.06 0"/><feBlend in2="BackgroundImageFix" result="effect1_dropShadow_91_25263"/><feColorMatrix in="SourceAlpha" result="hardAlpha" values="0 0 0 0 0 0 0 0 0 0 0 0 0 0 0 0 0 0 127 0"/><feOffset dy="1"/><feGaussianBlur stdDeviation="1.5"/><feColorMatrix values="0 0 0 0 0.0627451 0 0 0 0 0.0941176 0 0 0 0 0.156863 0 0 0 0.1 0"/><feBlend in2="effect1_dropShadow_91_25263" result="effect2_dropShadow_91_25263"/><feBlend in="SourceGraphic" in2="effect2_dropShadow_91_25263" result="shape"/></filter></defs></svg>
